frontend/public/truck.svg

<svg width="24" height="20" viewBox="0 0 24 20" fill="none" xmlns="http://www.w3.org/2000/svg">
<path fill-rule="evenodd" clip-rule="evenodd" d="M0 1C0 0.447715 0.447715 0 1 0H16C16.5523 0 17 0.447715 17 1V5H20C20.2652 5 20.5196 5.10536 20.7071 5.29289L23.7071 8.29289C23.8946 8.48043 24 8.73478 24 9V14C24 14.5523 23.5523 15 23 15H21.6632C21.8792 15.4546 22 15.9632 22 16.5C22 18.433 20.433 20 18.5 20C16.567 20 15 18.433 15 16.5C15 15.9632 15.1208 15.4546 15.3368 15H8.66319C8.87916 15.4546 9 15.9632 9 16.5C9 18.433 7.433 20 5.5 20C3.567 20 2 18.433 2 16.5C2 15.9632 2.12085 15.4546 2.33682 15H1C0.447715 15 0 14.5523 0 14V1ZM15 13V2H2V13H15ZM17 13V7H19.5858L22 9.41421V13H17ZM5.5 15C4.67157 15 4 15.6716 4 16.5C4 17.3284 4.67157 18 5.5 18C6.32843 18 7 17.3284 7 16.5C7 15.6716 6.32843 15 5.5 15ZM18.5 15C17.6716 15 17 15.6716 17 16.5C17 17.3284 17.6716 18 18.5 18C19.3284 18 20 17.3284 20 16.5C20 15.6716 19.3284 15 18.5 15Z" fill="#284CE5"/>
</svg>

<svg xmlns="http://www.w3.org/2000/svg" width="24" height="20" fill="none"><path fill="#284CE5" fill-rule="evenodd" d="M0 1a1 1 0 0 1 1-1h15a1 1 0 0 1 1 1v4h3a1 1 0 0 1 .707.293l3 3A1 1 0 0 1 24 9v5a1 1 0 0 1-1 1h-1.337a3.5 3.5 0 1 1-6.326 0H8.663a3.5 3.5 0 1 1-6.326 0H1a1 1 0 0 1-1-1zm15 12V2H2v11zm2 0V7h2.586L22 9.414V13zM5.5 15a1.5 1.5 0 1 0 0 3 1.5 1.5 0 0 0 0-3m13 0a1.5 1.5 0 1 0 0 3 1.5 1.5 0 0 0 0-3" clip-rule="evenodd"/></svg>
